X:1
T:Poznań, CMD
T:Poznań, CMD
T:Anonymous, 1881
T:Public Domain Courtesy of the Cyber Hymnal™
C:Anonymous, 1881
Z:Public Domain
Z:Courtesy of the Cyber Hymnal™
%%score ( 1 2 ) ( 3 4 )
L:1/8
Q:1/4=80
M:4/8
K:D
V:1 treble 
V:2 treble 
V:3 bass 
V:4 bass 
V:1
 D | [DA]>[DB][DA][DF] | [DB]>[Dc][Dd][GB] | [FA][DF][CE]>[CF] | D3 [DA] | [Fd]>[Ec][Fd][Ge] | %6
 [Fd][Ac][GB][FA] | [GB]A[Fd][DF] | [EA]3 [EA] | [Fd]>[Ec][Fd][Ge] | [Fd][Ac][GB][FA] | %11
 [GB][DA][CG][DF] | [EB]3 [Gc] | [Fd]>[Ac][GB][FA] | [GB]>[Gc]!fermata![Ad][GB] | %15
 [FA][DF][CE]>[CF] | D3 |] %17
V:2
 D | x4 | x4 | x4 | D3 x | x4 | x4 | x A x2 | x4 | x4 | x4 | x4 | x4 | x4 | x4 | x4 | D3 |] %17
V:3
 [D,F,] | [D,F,]>[D,G,][D,F,][D,A,] | G,>[G,A,][G,B,][G,D] | [A,D]A,[A,,G,]>[A,,A,] | %4
 [D,F,]3 [D,F,] | [D,A,]>[D,A,][D,A,][D,A,] | [D,A,][D,A,][D,D][D,D] | [G,D][F,A,][D,A,][B,,B,] | %8
 [A,,C]3 [A,C] | [D,D]>[D,A,][D,A,][D,A,] | [D,A,][D,A,][D,D][D,D] | [G,D][F,A,][E,A,][D,A,] | %12
 G,3 [E,A,] | [D,A,]>[D,A,][D,D][D,D] | [G,D]>[E,E]!fermata![F,D][G,D] | [A,D]A,[A,,G,]>[A,,A,] | %16
 [D,F,]3 |] %17
V:4
 x | x4 | G,3/2 x5/2 | x A, x2 | x4 | x4 | x4 | x4 | x4 | x4 | x4 | x4 | G,3 x | x4 | x4 | %15
 x A, x2 | x3 |] %17

